src/images/pages/welcome/metatrader5.svg

<svg width="32" height="32" viewBox="0 0 32 32" fill="none" xmlns="http://www.w3.org/2000/svg">
<path d="M0 6C0 2.68629 2.68629 0 6 0H26C29.3137 0 32 2.68629 32 6V26C32 29.3137 29.3137 32 26 32H6C2.68629 32 0 29.3137 0 26V6Z" fill="#2A3052"/>
<path fill-rule="evenodd" clip-rule="evenodd" d="M11.8803 11.3771C11.2669 13.0906 12.0896 14.9859 13.7602 15.708L16.1163 16.7653L16.863 20.4515L12.4708 18.4625C9.48728 17.0288 8.0664 13.575 9.17731 10.4568C10.2882 7.33869 13.5729 5.56131 16.7908 6.33703C17.1451 6.42635 17.4914 6.54493 17.8261 6.69153L22.3155 8.73389L18.8645 10.428L16.5994 9.39899C16.432 9.32644 16.2588 9.26768 16.0818 9.2233C14.3325 8.72102 12.4938 9.66359 11.8803 11.3771ZM15.172 11.6296L19.5641 13.6186C22.6706 15.1759 23.9907 18.9101 22.5531 22.0737C21.1155 25.2374 17.4345 26.699 14.2183 25.3833L9.72571 23.341L13.1767 21.6468L15.4198 22.679C15.5868 22.7529 15.76 22.8117 15.9375 22.8547C17.6817 23.3438 19.5073 22.401 20.1181 20.6956C20.729 18.9901 19.9172 17.1026 18.259 16.3731L15.8998 15.2908L15.172 11.6296Z" fill="white"/>
</svg>

<svg width="32" height="32" fill="none" xmlns="http://www.w3.org/2000/svg"><path d="M0 6a6 6 0 016-6h20a6 6 0 016 6v20a6 6 0 01-6 6H6a6 6 0 01-6-6V6z" fill="#2A3052"/><path fill-rule="evenodd" clip-rule="evenodd" d="M11.88 11.377a3.451 3.451 0 001.88 4.331l2.356 1.057.747 3.686-4.392-1.989a6.472 6.472 0 014.32-12.125c.354.09.7.208 1.035.355l4.49 2.042-3.451 1.694-2.266-1.029a3.352 3.352 0 00-.517-.176 3.451 3.451 0 00-4.202 2.154zm3.292.253l4.392 1.989a6.466 6.466 0 01-5.346 11.764l-4.492-2.042 3.45-1.694 2.244 1.032c.167.074.34.133.518.176a3.451 3.451 0 002.321-6.482l-2.36-1.082-.727-3.661z" fill="#fff"/></svg>
